shader colorselect (float select = 0,
                    output color Cout = 0)
{
    color colors[4] = {  color (0.141, 0.059, 0.051),
                         color (0.302, 0.176, 0.122),
                         color (0.651, 0.447, 0.165),
                         color (0.976, 0.976, 0.976) };

    Cout = spline("linear", select, colors);
}
